X:58
T:Pumpkin Power
R:jig
C:Paul S. Cranford
O:Cape Breton Island
S:http://www.cranfordpub.com
D:currently unrecorded
B:currently unpublished in book form
Z:psc
H:                                                        copyrights Cranford Publications, SOCAN
L:1/8
Q:300
M:6/8
K:F
Ffc dcB|ABG F2 C|DFC A,FG|ABA G2 A|
Ffc dcB|ABG F2 C|DFC ~A,3|1G,CE F2  C:|2G,CE F2||
|:d|cAA dBB|edc f2 g|afd cAF|1ABA GAB|
cAA dBB|edc f2 g|acA BGd|cge f2 :|
[2ABA GFD|CA,A, DB,F|EcE FAc|dfc AFB|ABG F2 z|]
